dist/svgs/devui-icons/op/fork-code.svg

<?xml version="1.0" encoding="UTF-8"?>
<svg width="16px" height="16px" viewBox="0 0 16 16" version="1.1" xmlns="http://www.w3.org/2000/svg" xmlns:xlink="http://www.w3.org/1999/xlink">
    <title>操作/fork仓库代码</title>
    <desc>Created with Sketch.</desc>
    <g id="操作/fork仓库代码" stroke="none" stroke-width="1" fill="none" fill-rule="evenodd">
        <path d="M-4.26325641e-14,1 L14,1 L14,3 L-4.26325641e-14,3 L-4.26325641e-14,1 Z M-4.4408921e-14,9 L6,9 L6,11 L-4.4408921e-14,11 L-4.4408921e-14,9 Z M-3.10862447e-14,5 L6,5 L6,7 L-3.10862447e-14,7 L-3.10862447e-14,5 Z M1.33226763e-14,13 L9,13 L9,15 L1.33226763e-14,15 L1.33226763e-14,13 Z M12,12 L11.6,12 C11.2568542,11 10.6568542,10.3333333 9.8,10 C8.94314575,9.66666667 8.34314575,9 8,8 L10.4,8 C10.7659417,8.91485422 11.299275,9.55072235 12,9.90760441 L12,8 L14,8 L14,15 L12,15 L12,12 Z M8.5,8 C7.67157288,8 7,7.32842712 7,6.5 C7,5.67157288 7.67157288,5 8.5,5 C9.32842712,5 10,5.67157288 10,6.5 C10,7.32842712 9.32842712,8 8.5,8 Z M8,6 L8,7 L9,7 L9,6 L8,6 Z M13.5,8 C12.6715729,8 12,7.32842712 12,6.5 C12,5.67157288 12.6715729,5 13.5,5 C14.3284271,5 15,5.67157288 15,6.5 C15,7.32842712 14.3284271,8 13.5,8 Z M13,6 L13,7 L14,7 L14,6 L13,6 Z" id="形状" fill="#293040" fill-rule="nonzero"></path>
    </g>
</svg>

<svg xmlns="http://www.w3.org/2000/svg" viewBox="0 0 16 16"><path d="M0 1h14v2H0V1zm0 8h6v2H0V9zm0-4h6v2H0V5zm0 8h9v2H0v-2zm12-1h-.4c-.343-1-.943-1.667-1.8-2-.857-.333-1.457-1-1.8-2h2.4c.366.915.9 1.55 1.6 1.908V8h2v7h-2v-3zM8.5 8a1.5 1.5 0 110-3 1.5 1.5 0 010 3zM8 6v1h1V6H8zm5.5 2a1.5 1.5 0 110-3 1.5 1.5 0 010 3zM13 6v1h1V6h-1z"/></svg>
